packages/ffe-icons/icons/filled/md/account_box.svg

<svg xmlns="http://www.w3.org/2000/svg" height="24" viewBox="0 -960 960 960" width="24"><path d="M480-438.461q54.154 0 92.076-37.923 37.923-37.923 37.923-92.077 0-54.153-37.923-92.076Q534.154-698.46 480-698.46q-54.154 0-92.076 37.923-37.923 37.923-37.923 92.076 0 54.154 37.923 92.077 37.922 37.923 92.076 37.923Zm-267.691 298.46q-30.308 0-51.308-21t-21-51.308v-535.382q0-30.308 21-51.308t51.308-21h535.382q30.308 0 51.308 21t21 51.308v535.382q0 30.308-21 51.308t-51.308 21H212.309ZM208.462-200h543.076q4.231-4.154 5.769-18.577 1.539-14.422 2.693-19.73-54-53-125.5-83.5t-154.5-30.5q-83 0-154.5 30.5t-125.5 83.5q1.154 5.308 2.693 19.73 1.538 14.423 5.769 18.577Z"/></svg>

<svg xmlns="http://www.w3.org/2000/svg" height="24" viewBox="0 -960 960 960" width="24"><path d="M480-438.46q54.15 0 92.08-37.92Q610-514.31 610-568.46t-37.92-92.08q-37.93-37.92-92.08-37.92t-92.08 37.92Q350-622.61 350-568.46t37.92 92.08q37.93 37.92 92.08 37.92ZM212.31-140Q182-140 161-161q-21-21-21-51.31v-535.38Q140-778 161-799q21-21 51.31-21h535.38Q778-820 799-799q21 21 21 51.31v535.38Q820-182 799-161q-21 21-51.31 21H212.31Zm-3.85-60h543.08q4.23-4.15 5.77-18.58 1.54-14.42 2.69-19.73-54-53-125.5-83.5T480-352.31q-83 0-154.5 30.5T200-238.31q1.15 5.31 2.69 19.73 1.54 14.43 5.77 18.58Z"/></svg>
